packages/ui/public/icons/pin.svg

<svg width="24" height="24" viewBox="0 0 24 24" fill="none" xmlns="http://www.w3.org/2000/svg">
<path d="M8.37658 15.6164L2.71973 21.2733M11.6943 6.64194L10.1334 8.20282C10.0061 8.33015 9.9424 8.39381 9.86986 8.4444C9.80548 8.4893 9.73604 8.52646 9.66297 8.55512C9.58065 8.58741 9.49236 8.60507 9.3158 8.64038L5.65133 9.37327C4.69903 9.56373 4.22288 9.65897 4.00012 9.91002C3.80605 10.1287 3.71743 10.4214 3.75758 10.711C3.80367 11.0435 4.14703 11.3869 4.83375 12.0736L11.9195 19.1593C12.6062 19.846 12.9496 20.1894 13.282 20.2355C13.5716 20.2756 13.8643 20.187 14.083 19.9929C14.3341 19.7702 14.4293 19.294 14.6198 18.3417L15.3527 14.6773C15.388 14.5007 15.4056 14.4124 15.4379 14.3301C15.4666 14.257 15.5038 14.1876 15.5487 14.1232C15.5992 14.0507 15.6629 13.987 15.7902 13.8597L17.3511 12.2988C17.4325 12.2174 17.4732 12.1767 17.518 12.1411C17.5577 12.1096 17.5998 12.0811 17.6439 12.0559C17.6935 12.0276 17.7464 12.0049 17.8522 11.9595L20.3466 10.8905C21.0743 10.5786 21.4381 10.4227 21.6034 10.1707C21.7479 9.95037 21.7996 9.68187 21.7473 9.4236C21.6874 9.12826 21.4075 8.84834 20.8477 8.28852L15.7045 3.14538C15.1447 2.58555 14.8648 2.30564 14.5695 2.24577C14.3112 2.19341 14.0427 2.24512 13.8223 2.38965C13.5703 2.55493 13.4144 2.91878 13.1025 3.64648L12.0335 6.14084C11.9882 6.24665 11.9655 6.29956 11.9372 6.34917C11.912 6.39325 11.8835 6.43534 11.8519 6.47509C11.8164 6.51983 11.7757 6.56053 11.6943 6.64194Z" stroke="white" stroke-width="2" stroke-linecap="round" stroke-linejoin="round"/>
</svg>

<svg width="24" height="24" fill="none" xmlns="http://www.w3.org/2000/svg"><path d="M8.377 15.616 2.72 21.273m8.974-14.631-1.56 1.56a2.1 2.1 0 0 1-.264.242 1 1 0 0 1-.207.111c-.082.032-.17.05-.347.085l-3.665.733c-.952.19-1.428.286-1.65.537a1 1 0 0 0-.243.801c.046.332.389.676 1.076 1.363l7.085 7.085c.687.687 1.03 1.03 1.363 1.076a1 1 0 0 0 .801-.242c.251-.223.346-.699.537-1.651l.733-3.665c.035-.176.053-.265.085-.347.029-.073.066-.142.11-.207.051-.072.115-.136.242-.263l1.561-1.561c.082-.082.122-.122.167-.158.04-.031.082-.06.126-.085.05-.028.102-.051.208-.096l2.495-1.07c.727-.311 1.091-.467 1.256-.72a1 1 0 0 0 .144-.746c-.06-.296-.34-.576-.9-1.135l-5.143-5.144c-.56-.56-.84-.84-1.135-.9a1 1 0 0 0-.747.145c-.252.165-.408.529-.72 1.256l-1.069 2.495a2.078 2.078 0 0 1-.096.208 1 1 0 0 1-.085.126c-.036.045-.076.086-.158.167Z" stroke="#fff" stroke-width="2" stroke-linecap="round" stroke-linejoin="round"/></svg>
